public/confirm-delete.svg

<?xml version="1.0" encoding="UTF-8" standalone="no"?>
<!DOCTYPE svg PUBLIC "-//W3C//DTD SVG 1.1//EN" "http://www.w3.org/Graphics/SVG/1.1/DTD/svg11.dtd">
<!-- Created with Vectornator (http://vectornator.io/) -->
<svg height="100%" stroke-miterlimit="10" style="fill-rule:nonzero;clip-rule:evenodd;stroke-linecap:round;stroke-linejoin:round;" version="1.1" viewBox="0 0 492 492" width="100%" xml:space="preserve" xmlns="http://www.w3.org/2000/svg" xmlns:vectornator="http://vectornator.io" xmlns:xlink="http://www.w3.org/1999/xlink">
<defs/>
<g id="Untitled" vectornator:layerName="Untitled">
<path d="M444.575 127.985L431.136 114.545C426.913 110.319 421.283 107.994 415.272 107.994C409.261 107.994 403.627 110.319 399.405 114.545L210.566 303.381L92.582 185.394C88.3591 181.174 82.7253 178.846 76.7145 178.846C70.7071 178.846 65.0766 181.174 60.8504 185.394L47.4079 198.83C43.1817 203.062 40.8601 208.7 40.8601 214.704C40.8601 220.711 43.1817 226.345 47.4079 230.571L180.619 363.775C180.796 364.025 180.982 364.259 181.199 364.472L194.642 377.691C198.864 381.901 204.498 384.006 210.556 384.006L210.626 384.006C216.64 384.006 222.274 381.901 226.49 377.691L239.936 364.356C240.153 364.142 240.336 363.965 240.446 363.785L444.572 159.679C453.328 150.944 453.328 136.73 444.575 127.985Z" fill="#000000" fill-rule="nonzero" opacity="1" stroke="none" vectornator:layerName="path"/>
</g>
</svg>

<svg xmlns="http://www.w3.org/2000/svg" xmlns:vectornator="http://vectornator.io" xml:space="preserve" stroke-miterlimit="10" style="fill-rule:nonzero;clip-rule:evenodd;stroke-linecap:round;stroke-linejoin:round" viewBox="0 0 492 492"><g vectornator:layerName="Untitled"><path vectornator:layerName="path" d="m444.575 127.985-13.439-13.44c-4.223-4.226-9.853-6.551-15.864-6.551-6.011 0-11.645 2.325-15.867 6.551L210.566 303.381 92.582 185.394c-4.223-4.22-9.857-6.548-15.867-6.548-6.008 0-11.638 2.328-15.865 6.548L47.408 198.83c-4.226 4.232-6.548 9.87-6.548 15.874 0 6.007 2.322 11.641 6.548 15.867l133.211 133.204c.177.25.363.484.58.697l13.443 13.219c4.222 4.21 9.856 6.315 15.914 6.315h.07c6.014 0 11.648-2.105 15.864-6.315l13.446-13.335c.217-.214.4-.391.51-.571l204.126-204.106c8.756-8.735 8.756-22.949.003-31.694Z"/></g></svg>
